packages/kaspersky-hexa-ui-icons/src/iconsSVGs/16/Web.svg

<svg width="16" height="16" viewBox="0 0 16 16" fill="none" xmlns="http://www.w3.org/2000/svg">
<path d="M14.9999 7.96268C14.98 4.13552 11.8887 1.03506 8.06513 1.00021C8.04355 0.999422 8.02185 0.999023 8.00004 0.999023C7.97823 0.999023 7.95654 0.999422 7.93497 1.00021C4.09893 1.03512 1 4.15562 1 7.99991C1 11.8431 4.09711 14.9629 7.9316 14.9996C7.95428 15.0005 7.97709 15.0009 8.00004 15.0009C8.02299 15.0009 8.04581 15.0005 8.0685 14.9996C11.8906 14.9629 14.98 11.8632 14.9999 8.03715C15.0006 8.02483 15.001 8.01241 15.001 7.99991C15.001 7.98742 15.0006 7.975 14.9999 7.96268ZM6.04033 7.34991C6.10275 5.92693 6.36705 4.6732 6.74542 3.75737C6.96356 3.22938 7.20682 2.84481 7.44369 2.6023C7.66206 2.37874 7.83972 2.30869 7.97117 2.29999L8 2.29991L8.02891 2.29999C8.16036 2.30869 8.33801 2.37874 8.55639 2.6023C8.79326 2.84481 9.03652 3.22938 9.25465 3.75737C9.63303 4.6732 9.89732 5.92693 9.95975 7.34991H6.04033ZM9.95975 8.64991C9.89733 10.0729 9.63303 11.3267 9.25465 12.2426C9.03652 12.7705 8.79326 13.1551 8.55639 13.3976C8.33886 13.6203 8.16174 13.6907 8.03044 13.6998L8 13.6999L7.96964 13.6998C7.83835 13.6907 7.66122 13.6203 7.44369 13.3976C7.20682 13.1551 6.96356 12.7705 6.74542 12.2426C6.36704 11.3267 6.10274 10.0729 6.04032 8.64991H9.95975ZM11.2609 8.64991H13.6633C13.4275 10.7276 12.0747 12.4664 10.2199 13.2514C10.3041 13.0879 10.3828 12.9165 10.4561 12.739C10.9088 11.6433 11.1978 10.2149 11.2609 8.64991ZM13.6633 7.34991H11.2609C11.1978 5.78499 10.9088 4.35657 10.4561 3.26097C10.3828 3.08336 10.304 2.91195 10.2199 2.74835C12.0746 3.53335 13.4275 5.27223 13.6633 7.34991ZM4.73919 7.34991H2.33666C2.57251 5.2722 3.92541 3.53328 5.78021 2.74831C5.69605 2.91192 5.61731 3.08335 5.54393 3.26097C5.09129 4.35657 4.80225 5.78499 4.73919 7.34991ZM4.73919 8.64991C4.80224 10.2149 5.09128 11.6433 5.54393 12.739C5.61729 12.9165 5.69601 13.0879 5.78015 13.2515C3.92538 12.4665 2.57251 10.7276 2.33666 8.64991H4.73919Z" fill="black"/>
</svg>

<svg xmlns="http://www.w3.org/2000/svg" width="16" height="16" fill="none" viewBox="0 0 16 16"><path fill="#000" fill-rule="evenodd" d="M14.9999 7.9627C14.98 4.1355 11.8887 1.035 8.0651 1.0002a1.8 1.8 0 0 0-.1301 0C4.099 1.0352 1 4.1556 1 8c0 3.8432 3.0971 6.963 6.9316 6.9997a1.7 1.7 0 0 0 .1369 0c3.8221-.0367 6.9115-3.1364 6.9314-6.9624a.7.7 0 0 0 0-.0745M6.0403 7.35c.0625-1.423.3267-2.6767.7051-3.5925.2182-.528.4614-.9126.6983-1.1551.2184-.2236.396-.2936.5275-.3023h.0578c.1314.0087.309.0787.5274.3023.2369.2425.4801.627.6982 1.155.3784.9159.6427 2.1696.7051 3.5926zm3.9194 1.3c-.0624 1.423-.3267 2.6768-.705 3.5927-.2182.5279-.4614.9125-.6983 1.155-.2175.2227-.3947.2931-.526.3022H8l-.0304-.0001c-.1312-.0091-.3084-.0795-.526-.3022-.2368-.2425-.48-.6271-.6982-1.155-.3784-.9159-.6427-2.1697-.705-3.5927zm1.3012 0h2.4024c-.2358 2.0777-1.5886 3.8165-3.4434 4.6015a6.7 6.7 0 0 0 .2362-.5124c.4527-1.0957.7417-2.5241.8048-4.089m2.4024-1.3h-2.4024c-.0631-1.565-.3521-2.9933-.8048-4.089a6.8 6.8 0 0 0-.2362-.5126c1.8547.785 3.2076 2.524 3.4434 4.6016m-8.9241 0H2.3367c.2358-2.0777 1.5887-3.8166 3.4435-4.6016a6.8 6.8 0 0 0-.2363.5127c-.4526 1.0956-.7416 2.524-.8047 4.089m0 1.3c.063 1.565.352 2.9934.8047 4.0891a6.8 6.8 0 0 0 .2363.5125c-1.8548-.785-3.2077-2.5239-3.4435-4.6016z"/></svg>
